**kern	**kern	**kern	**kern
*staff3	*staff4	*staff1	*staff2
*clefF4	*clefF4	*clefG2	*clefG2
*k[f#c#]	*k[f#c#]	*k[f#c#]	*k[f#c#]
*M2/4	*M2/4	*M2/4	*M2/4
*D:	*D:	*D:	*D:
=-	=-	=-	=-
*	*clefF4	*clefF4	*
*M2/4	*M2/4	*M2/4	*M2/4
2r	8AAA'L	(4E	4C#
.	8BB'J	.	.
.	8AA'L	8F#'L)	8r
.	8GG'J	8G'J	8E
=262	=262	=262	=262
2r	8FF#'L	4.A	8D'L
.	8EE'J	.	8E'J
.	8DD'	.	8F#'
.	8r	(16BLL	8r
.	.	16c#JJ)	.
=263	=263	=263	=263
2r	8AAA 8AA	8d'L	8E 8G
.	8r	8e'J	8r
.	8AAA 8AA	8d'L	8E 8G
.	8r	8c#'J	8r
=264	=264	=264	=264
2r	8DD	8d	8F# 8A
.	8r	8r	8r
.	4r	4r	4r
*	*	*clefG2	*
=	=	=	=
*M3/8	*M3/8	*M3/8	*M3/8
4.r	8.G 8.A 8.c# 8.e	8.a 8.cc# 8.ee	4.r
.	16r	32r	.
.	.	32ff#LLK	.
.	8r	16.gg	.
.	.	32gg#JJk	.
=265	=265	=265	=265
4.r	8.F# 8.A 8.d 8.f#	8.a 8.dd 8.ff# 8.aa	4.r
.	16r	32r	.
.	.	32bbLLK	.
.	8r	16.ccc#	.
.	.	32dddJJk	.
=266	=266	=266	=266
*	*clefG2	*	*
4.r	4.A; 4.c#; 4.e; 4.g;	16.dddLL	4.r
.	.	32ccc#JJk	.
.	.	4ccc#	.
=267	=267	=267	=267
4.r	([8dL 8a 8cc#	(8ggL 8eee	4.r
.	8dJ]) 8a 8dd	8ff#J) 8ddd	.
.	8r	8r	.
*	*clefF4	*	*
=268	=268	=268	=268
*-	*-	*-	*-
